assets/Woman genie/Flat/woman_genie_flat.svg

<svg width="32" height="32" viewBox="0 0 32 32" fill="none" xmlns="http://www.w3.org/2000/svg">
<path d="M5 30V26.8759C5 23.7653 6.61627 20.9949 9.14085 19.1966C9.14085 19.1966 12 16.9999 16 16.9999C20 16.9999 22.7781 19.1452 22.7781 19.1452C25.3476 20.9434 27 23.7391 27 26.8759V30H22.9L21 29L19.1 30H12.9L11.025 29L9.1 30H5Z" fill="#46A4FB"/>
<path d="M13.4677 17.3C13.7302 18.5965 14.8762 19.5887 16.2501 19.5887C17.5818 19.5887 18.6994 18.6717 19.0058 17.4347C19.3822 17.5326 19.6867 17.6262 19.8814 17.6895C19.4644 19.3058 17.9967 20.4999 16.2501 20.4999C14.4513 20.4999 12.9484 19.1898 12.5842 17.4999C12.8289 17.4294 13.1297 17.3767 13.4677 17.3Z" fill="#FCD53F"/>
<path d="M23 19.3158C22.4085 18.7736 21.7295 18.4006 21.0301 18.0165L21 18V21.7079C20.6235 21.572 20.218 21.5 19.7994 21.5H19.7558C18.9502 21.5096 18.1882 21.7865 17.6003 22.2736C17.1649 22.6365 16.5988 22.8371 16 22.8371C15.4012 22.8371 14.8351 22.6365 14.3997 22.2736C13.8118 21.7865 13.0498 21.5096 12.2442 21.5H12.2006C11.7876 21.5 11.3875 21.57 11.0153 21.7024L11 18.1001C10.7954 18.2154 10.5924 18.3182 10.3928 18.4193C9.89976 18.6691 9.42708 18.9085 9 19.3V23.2H9.26404C9.09512 23.543 9.00561 23.9143 9 24.2983C9 24.6326 9.06532 24.9573 9.19596 25.2629C9.39191 25.7404 9.50078 26.2562 9.50078 26.791V30H22.4992V26.791C22.4992 26.2562 22.5972 25.7404 22.804 25.2629C22.9347 24.9573 23 24.623 23 24.2983C23 23.9255 22.9155 23.5646 22.7546 23.23H23V19.3158Z" fill="#F92F60"/>
<path d="M21.5 6.49997C22.3 6.89997 22.5 7.5 22.5 8.5C22.5 9.00001 22.3601 9.81375 22 10.25C21.8656 10.4128 21.8035 10.6173 21.7747 10.7716L21.75 10.7555V18.5324C21.75 19.3411 21.0765 20 20.25 20C19.4235 20 18.75 19.3411 18.75 18.5225V11H14.8681C14.3556 11.4605 13.7063 11.75 13 11.75C10.818 11.75 10 10.1569 10 8.5C10 6.84315 11.3431 5.5 13 5.5C13.0556 5.5 13.1296 5.42592 13.2407 5.31481C13.4018 5.15375 13.6407 4.91487 14.0137 4.71097C14.1592 3.18972 15.4406 2 17 2H17.5C19.7091 2 21.5 3.79086 21.5 6V6.49997Z" fill="#321B41"/>
<path d="M12.75 12.125C12.75 13.0225 12.0225 13.75 11.125 13.75C10.2275 13.75 9.5 13.0225 9.5 12.125C9.5 11.2275 10.2275 10.5 11.125 10.5C12.0225 10.5 12.75 11.2275 12.75 12.125Z" fill="#26C9FC"/>
<path d="M22.5 12.125C22.5 13.0225 21.7725 13.75 20.875 13.75C19.9775 13.75 19.25 13.0225 19.25 12.125C19.25 11.2275 19.9775 10.5 20.875 10.5C21.7725 10.5 22.5 11.2275 22.5 12.125Z" fill="#26C9FC"/>
<path d="M19.8831 9.00506H16.7307C15.4781 9.00506 14.309 8.39295 13.6096 7.36584C13.4843 7.18947 13.2234 7.2206 13.1503 7.41772L13.0668 7.59409C12.8476 8.14395 12.4196 8.56932 11.8977 8.80794C11.8664 8.81831 11.8246 8.83906 11.7933 8.84944C11.5637 8.96356 11.0209 9.32668 11 10.25L11.1253 13.3728C11.2401 16.1429 13.3904 18 16 18C18.6096 18 20.7599 16.1429 20.8747 13.3728L21 10.3953C20.9896 9.08806 20.0605 9.00506 19.8831 9.00506Z" fill="#26C9FC"/>
<path d="M18.4997 10.75C17.9576 10.75 17.5159 11.12 17.2449 11.54C17.5108 11.6215 17.77 11.6963 18.0273 11.7707C18.4015 11.8787 18.7716 11.9856 19.1523 12.11L19.614 11.7C19.8048 11.53 19.7947 11.23 19.5839 11.08C19.2828 10.87 18.8812 10.75 18.4997 10.75Z" fill="black"/>
<path d="M13.5002 10.76C14.0423 10.76 14.484 11.13 14.7551 11.54C14.5228 11.6112 14.2957 11.6773 14.0704 11.7429C13.6628 11.8615 13.2615 11.9783 12.8477 12.12L12.3859 11.71C12.1952 11.54 12.2052 11.24 12.416 11.09C12.7172 10.88 13.1187 10.76 13.5002 10.76Z" fill="black"/>
<path d="M12.3755 11.8501C12.5261 11.2801 13.0481 10.8501 13.6705 10.8501C14.313 10.8501 14.8551 11.3101 14.9856 11.9201C15.0057 12.0601 14.9053 12.1801 14.7647 12.1801H12.6365C12.4658 12.1801 12.3353 12.0201 12.3755 11.8501Z" fill="white"/>
<path d="M19.6241 11.8501C19.4736 11.2801 18.9515 10.8501 18.3291 10.8501C17.6766 10.8501 17.1345 11.3101 17.014 11.9101C16.994 12.0501 17.0943 12.1701 17.2349 12.1701H19.3631C19.5338 12.1701 19.6643 12.0101 19.6241 11.8501Z" fill="white"/>
<path d="M13.0083 11.9601C13.0083 11.4901 13.3898 11.1101 13.8616 11.1101C14.3334 11.1101 14.7149 11.4901 14.7149 11.9601C14.7149 12.0401 14.7049 12.1201 14.6848 12.1901H13.0384C13.0183 12.1101 13.0083 12.0401 13.0083 11.9601Z" fill="#7D4533"/>
<path d="M18.9815 11.9601C18.9815 11.4901 18.6 11.1101 18.1282 11.1101C17.6564 11.1101 17.2749 11.4901 17.2749 11.9601C17.2749 12.0401 17.2849 12.1201 17.305 12.1901H18.9514C18.9715 12.1101 18.9815 12.0401 18.9815 11.9601Z" fill="#7D4533"/>
<path d="M13.8718 11.47C14.1328 11.47 14.3536 11.68 14.3536 11.95C14.3536 12.04 14.3335 12.11 14.3135 12.18H13.4501C13.41 12.11 13.3899 12.03 13.3899 11.95C13.3899 11.69 13.6007 11.47 13.8718 11.47Z" fill="black"/>
<path d="M18.1283 11.47C17.8673 11.47 17.6465 11.68 17.6465 11.95C17.6465 12.04 17.6666 12.11 17.6866 12.18H18.55C18.5901 12.11 18.6102 12.03 18.6102 11.95C18.6102 11.69 18.3994 11.47 18.1283 11.47Z" fill="black"/>
<path d="M13.7211 11.62C13.7211 11.7028 13.6537 11.77 13.5705 11.77C13.4873 11.77 13.4199 11.7028 13.4199 11.62C13.4199 11.5371 13.4873 11.47 13.5705 11.47C13.6537 11.47 13.7211 11.5371 13.7211 11.62Z" fill="white"/>
<path d="M17.9877 11.62C17.9877 11.7028 17.9203 11.77 17.8371 11.77C17.7539 11.77 17.6865 11.7028 17.6865 11.62C17.6865 11.5371 17.7539 11.47 17.8371 11.47C17.9203 11.47 17.9877 11.5371 17.9877 11.62Z" fill="white"/>
<path d="M16 15.3955C15.4515 15.3955 14.9255 15.255 14.4889 15.0209C14.3434 14.9389 14.1867 15.1145 14.2762 15.2667C14.6456 15.852 15.2836 16.25 16 16.25C16.7164 16.25 17.3544 15.8637 17.7238 15.2667C17.8133 15.1145 17.6566 14.9389 17.5111 15.0209C17.0745 15.255 16.5597 15.3955 16 15.3955Z" fill="#990838"/>
<path d="M15.644 11.7856L15.1487 13.5331C15.0455 13.8915 15.2931 14.25 15.6337 14.25H16.3663C16.7069 14.25 16.9545 13.8915 16.8513 13.5331L16.3663 11.7856C16.2631 11.4048 15.7575 11.4048 15.644 11.7856Z" fill="#00A6ED"/>
<path d="M19.2653 10.2976C19.3053 10.3176 19.3553 10.3276 19.3953 10.3276C19.4853 10.3276 19.5653 10.2876 19.6153 10.1976C19.6853 10.0776 19.6453 9.91763 19.5253 9.84763C19.5253 9.84763 19.521 9.8454 19.5171 9.84334C19.4211 9.79267 18.6282 9.37427 17.7153 9.53763C17.5753 9.56763 17.4753 9.69763 17.5053 9.83763C17.5353 9.97763 17.6653 10.0776 17.8053 10.0476C18.4976 9.92011 19.1318 10.2323 19.2469 10.289C19.2582 10.2945 19.2653 10.2976 19.2653 10.2976Z" fill="#321B41"/>
<path d="M12.2844 10.191C12.3344 10.271 12.4144 10.321 12.5044 10.321C12.5444 10.321 12.5944 10.311 12.6344 10.291C12.6344 10.291 13.3244 9.90099 14.0944 10.051C14.2344 10.071 14.3744 9.98099 14.3944 9.84099C14.4144 9.70099 14.3244 9.57099 14.1844 9.54099C13.2755 9.36877 12.4856 9.79153 12.384 9.84595C12.3794 9.84841 12.3744 9.85099 12.3744 9.85099C12.2544 9.92099 12.2144 10.071 12.2844 10.191Z" fill="#321B41"/>
<path d="M8.50078 30H9.50078V26.7911C9.50078 26.2562 9.39191 25.7405 9.19596 25.263C9.06532 24.9574 9 24.6327 9 24.2984C9.01089 23.5534 9.33748 22.8563 9.94712 22.3214C10.5568 21.7961 11.3515 21.5001 12.2006 21.5001H12.2442C13.0498 21.5096 13.8118 21.7866 14.3997 22.2737C14.8351 22.6366 15.4012 22.8372 16 22.8372C16.5988 22.8372 17.1649 22.6366 17.6003 22.2737C18.1882 21.7866 18.9502 21.5096 19.7558 21.5001H19.7994C20.6485 21.5001 21.4432 21.7961 22.0529 22.3214C22.6625 22.8563 23 23.5534 23 24.2984C23 24.6231 22.9347 24.9574 22.804 25.263C22.5972 25.7405 22.4992 26.2562 22.4992 26.7911V30H23.4992V26.7911C23.4992 26.3793 23.5743 26.0006 23.7217 25.6605L23.7236 25.656C23.9091 25.2219 24 24.7534 24 24.2984C24 23.2334 23.5131 22.2721 22.7124 21.5697L22.7056 21.5638C21.9099 20.8783 20.8812 20.5001 19.7985 20.5001L19.7558 20.5L19.744 20.5001C18.7184 20.5123 17.7332 20.8649 16.9623 21.5036L16.9601 21.5055C16.7133 21.7111 16.3768 21.8372 16 21.8372C15.6232 21.8372 15.2867 21.7111 15.0399 21.5055L15.0377 21.5036C14.2668 20.8649 13.2816 20.5122 12.256 20.5001H12.2006C11.1179 20.5001 10.09 20.8782 9.29435 21.5638L9.28765 21.5697C8.4786 22.2795 8.01538 23.239 8.00011 24.2838L8 24.2911V24.2984C8 24.7621 8.0905 25.2181 8.27308 25.6481C8.42077 26.01 8.50078 26.3952 8.50078 26.7911V30Z" fill="#FCD53F"/>
<path d="M18.54 21.6364C18.54 22.6061 18.8309 23.5556 19.3625 24.3637L19.5732 24.6869C19.7036 24.8889 19.9243 25 20.165 25C20.4057 25 20.6264 24.8788 20.7568 24.6869L20.9675 24.3637C21.5091 23.5556 21.79 22.6061 21.79 21.6364C21.79 20.7274 21.0578 20.0001 20.165 20.0001C19.2723 19.99 18.54 20.7274 18.54 21.6364Z" fill="#321B41"/>
<path d="M21.25 19H19.25C19.1119 19 19 19.1119 19 19.25V20.25C19 20.3881 19.1119 20.5 19.25 20.5H21.25C21.3881 20.5 21.5 20.3881 21.5 20.25V19.25C21.5 19.1119 21.3881 19 21.25 19Z" fill="#FCD53F"/>
<path d="M17.875 3.75H14.125C14.056 3.75 14 3.80596 14 3.875V4.875C14 4.94404 14.056 5 14.125 5H17.875C17.944 5 18 4.94404 18 4.875V3.875C18 3.80596 17.944 3.75 17.875 3.75Z" fill="#F8312F"/>
</svg>

<svg xmlns="http://www.w3.org/2000/svg" width="32" height="32" fill="none"><path fill="#46A4FB" d="M5 30v-3.124c0-3.11 1.616-5.881 4.14-7.68C9.14 19.197 12 17 16 17s6.778 2.145 6.778 2.145C25.348 20.943 27 23.74 27 26.875V30h-4.1L21 29l-1.9 1h-6.2l-1.875-1L9.1 30H5Z"/><path fill="#FCD53F" d="M13.468 17.3c.262 1.296 1.408 2.289 2.782 2.289a2.84 2.84 0 0 0 2.756-2.154c.376.098.68.191.875.255a3.752 3.752 0 0 1-3.63 2.81c-1.8 0-3.303-1.31-3.667-3 .245-.07.546-.123.884-.2Z"/><path fill="#F92F60" d="M23 19.316c-.591-.542-1.27-.915-1.97-1.3L21 18v3.708a3.534 3.534 0 0 0-1.2-.208h-.044a3.44 3.44 0 0 0-2.156.774 2.493 2.493 0 0 1-1.6.563c-.599 0-1.165-.2-1.6-.563a3.44 3.44 0 0 0-2.156-.774h-.043c-.413 0-.814.07-1.186.202L11 18.1c-.205.115-.408.218-.607.32-.493.25-.966.488-1.393.88v3.9h.264A2.558 2.558 0 0 0 9 24.298c0 .335.065.66.196.965.196.477.305.993.305 1.528V30h12.998v-3.209c0-.535.098-1.05.305-1.528a2.453 2.453 0 0 0-.05-2.033H23v-3.914Z"/><path fill="#321B41" d="M21.5 6.5c.8.4 1 1 1 2 0 .5-.14 1.314-.5 1.75a1.163 1.163 0 0 0-.225.522l-.025-.017v7.777c0 .81-.674 1.468-1.5 1.468s-1.5-.659-1.5-1.477V11h-3.882c-.512.46-1.162.75-1.868.75-2.182 0-3-1.593-3-3.25a3 3 0 0 1 3-3c.056 0 .13-.074.24-.185.162-.161.4-.4.774-.604A3 3 0 0 1 17 2h.5a4 4 0 0 1 4 4v.5Z"/><path fill="#26C9FC" d="M12.75 12.125a1.625 1.625 0 1 1-3.25 0 1.625 1.625 0 0 1 3.25 0ZM22.5 12.125a1.625 1.625 0 1 1-3.25 0 1.625 1.625 0 0 1 3.25 0Z"/><path fill="#26C9FC" d="M19.883 9.005h-3.152a3.77 3.77 0 0 1-3.121-1.64.26.26 0 0 0-.46.053l-.083.176c-.22.55-.647.975-1.17 1.214-.03.01-.072.031-.104.041-.23.115-.772.478-.793 1.401l.125 3.123C11.24 16.143 13.39 18 16 18s4.76-1.857 4.875-4.627L21 10.395c-.01-1.307-.94-1.39-1.117-1.39Z"/><path fill="#000" d="M18.5 10.75c-.542 0-.984.37-1.255.79.266.082.525.156.782.23.374.109.745.216 1.125.34l.462-.41c.19-.17.18-.47-.03-.62a1.95 1.95 0 0 0-1.084-.33ZM13.5 10.76c.542 0 .984.37 1.255.78-.232.071-.46.137-.685.203-.407.118-.809.235-1.222.377l-.462-.41a.395.395 0 0 1 .03-.62 1.95 1.95 0 0 1 1.084-.33Z"/><path fill="#fff" d="M12.376 11.85c.15-.57.672-1 1.295-1 .642 0 1.184.46 1.315 1.07.02.14-.08.26-.221.26h-2.129a.269.269 0 0 1-.26-.33ZM19.624 11.85c-.15-.57-.672-1-1.295-1-.652 0-1.195.46-1.315 1.06-.02.14.08.26.22.26h2.13c.17 0 .3-.16.26-.32Z"/><path fill="#7D4533" d="M13.008 11.96c0-.47.382-.85.854-.85a.851.851 0 0 1 .823 1.08h-1.647a.904.904 0 0 1-.03-.23ZM18.982 11.96c0-.47-.382-.85-.854-.85a.851.851 0 0 0-.823 1.08h1.646c.02-.08.03-.15.03-.23Z"/><path fill="#000" d="M13.872 11.47c.26 0 .482.21.482.48 0 .09-.02.16-.04.23h-.864a.481.481 0 0 1 .422-.71ZM18.128 11.47a.481.481 0 0 0-.482.48c0 .09.02.16.04.23h.864a.481.481 0 0 0-.422-.71Z"/><path fill="#fff" d="M13.721 11.62a.15.15 0 1 1-.3 0 .15.15 0 0 1 .3 0ZM17.988 11.62a.15.15 0 1 1-.3 0 .15.15 0 0 1 .3 0Z"/><path fill="#990838" d="M16 15.396c-.549 0-1.075-.141-1.511-.375-.146-.082-.302.093-.213.246.37.585 1.008.983 1.724.983a2.03 2.03 0 0 0 1.724-.983c.09-.152-.067-.328-.213-.246a3.19 3.19 0 0 1-1.511.374Z"/><path fill="#00A6ED" d="m15.644 11.786-.495 1.747c-.103.359.144.717.485.717h.732c.34 0 .588-.358.485-.717l-.485-1.747c-.103-.381-.608-.381-.722 0Z"/><path fill="#321B41" d="M19.265 10.298c.04.02.09.03.13.03.09 0 .17-.04.22-.13.07-.12.03-.28-.09-.35l-.008-.005c-.096-.05-.889-.469-1.802-.305-.14.03-.24.16-.21.3.03.14.16.24.3.21.693-.128 1.327.184 1.442.241a.545.545 0 0 0 .018.009ZM12.284 10.191c.05.08.13.13.22.13.04 0 .09-.01.13-.03 0 0 .69-.39 1.46-.24.14.02.28-.07.3-.21a.267.267 0 0 0-.21-.3c-.909-.172-1.698.25-1.8.305l-.01.005c-.12.07-.16.22-.09.34Z"/><path fill="#FCD53F" d="M8.5 30h1v-3.209c0-.535-.108-1.05-.304-1.528A2.44 2.44 0 0 1 9 24.298c.01-.745.337-1.442.947-1.977a3.44 3.44 0 0 1 2.254-.82h.043a3.44 3.44 0 0 1 2.156.773 2.493 2.493 0 0 0 1.6.563c.599 0 1.165-.2 1.6-.563a3.44 3.44 0 0 1 2.156-.774h.043c.85 0 1.644.296 2.254.821.61.535.947 1.232.947 1.977 0 .325-.065.66-.196.965a3.821 3.821 0 0 0-.305 1.528V30h1v-3.209c0-.412.075-.79.223-1.13l.002-.005c.185-.434.276-.903.276-1.358 0-1.065-.487-2.026-1.288-2.728l-.006-.006a4.442 4.442 0 0 0-2.907-1.064H19.744a4.44 4.44 0 0 0-2.782 1.004l-.002.002a1.495 1.495 0 0 1-.96.331c-.377 0-.713-.126-.96-.331l-.002-.002a4.44 4.44 0 0 0-2.782-1.004h-.055c-1.083 0-2.111.378-2.907 1.064l-.006.006c-.81.71-1.273 1.669-1.288 2.714v.014c0 .464.09.92.273 1.35.148.362.228.747.228 1.143V30Z"/><path fill="#321B41" d="M18.54 21.636c0 .97.29 1.92.823 2.728l.21.323c.13.202.351.313.592.313.24 0 .461-.121.592-.313l.21-.323a4.892 4.892 0 0 0 .823-2.728A1.63 1.63 0 0 0 20.165 20c-.893-.01-1.625.727-1.625 1.636Z"/><path fill="#FCD53F" d="M21.25 19h-2a.25.25 0 0 0-.25.25v1c0 .138.112.25.25.25h2a.25.25 0 0 0 .25-.25v-1a.25.25 0 0 0-.25-.25Z"/><path fill="#F8312F" d="M17.875 3.75h-3.75a.125.125 0 0 0-.125.125v1c0 .069.056.125.125.125h3.75A.125.125 0 0 0 18 4.875v-1a.125.125 0 0 0-.125-.125Z"/></svg>
